src/shared/assets/images/icons/interface-active.svg

<svg width="48" height="48" viewBox="0 0 48 48" fill="none" xmlns="http://www.w3.org/2000/svg">
<path d="M4.21539 12.5773L24 1.1547L43.7846 12.5773V35.4226L24 46.8453L4.21539 35.4226V12.5773Z" fill="#171E2F" stroke="#FFD644" stroke-width="2"/>
<path d="M25.8803 23.3839C25.8748 22.3814 24.9714 21.519 23.9325 21.5239C22.9163 21.5286 22.0512 22.3892 22.0582 23.3886C22.0652 24.4121 22.9527 25.288 23.9726 25.2777C25.0181 25.267 25.8854 24.406 25.8803 23.3839ZM23.9693 22.4241C23.9928 22.4443 24.0119 22.4596 24.0288 22.4753C24.3206 22.7597 24.6109 23.0483 24.9053 23.332C24.9707 23.3953 24.9336 23.4334 24.888 23.4778C24.6131 23.7465 24.3368 24.0142 24.0641 24.2851C23.9994 24.3491 23.9568 24.353 23.8877 24.2851C23.615 24.0142 23.3364 23.7483 23.0567 23.4845C22.9913 23.4227 22.9788 23.3779 23.0475 23.3111C23.328 23.0395 23.6054 22.7646 23.8847 22.4916C23.9119 22.4672 23.9405 22.4443 23.9704 22.423L23.9693 22.4241Z" fill="#848E9C"/>
<path d="M23.9649 33.68C23.6562 33.1283 23.3669 32.6135 23.0828 32.098C23.0391 32.0187 23.0461 31.9252 23.0461 31.836C23.0461 30.5093 23.0439 29.1825 23.0479 27.8544C23.0479 27.7122 23.0138 27.6005 22.9031 27.5088C22.672 27.3176 22.4419 27.1249 22.2681 26.9798C22.3048 27.1707 22.3662 27.4576 22.4151 27.7463C22.5128 28.3252 22.5625 28.9106 22.5639 29.4972C22.5639 30.3383 22.5639 31.1794 22.5639 32.0212C22.5597 32.1875 22.5964 32.3524 22.6712 32.5022C23.0877 33.3061 23.5043 34.1105 23.9208 34.9154C23.934 34.9413 23.952 34.9648 23.9744 35C24.0803 34.8791 24.1324 34.7398 24.2001 34.6089C24.558 33.9218 24.9116 33.2324 25.2702 32.547C25.3534 32.3883 25.3951 32.2123 25.3919 32.0344C25.3875 31.43 25.3948 30.8257 25.3871 30.2213C25.3728 29.1001 25.4114 27.9841 25.6745 26.8689C25.4297 27.1178 25.1824 27.3627 24.9421 27.6155C24.8847 27.6752 24.9086 27.7634 24.9086 27.8394C24.9086 29.1246 24.9053 30.4101 24.9086 31.6956C24.911 31.9088 24.8539 32.1187 24.7432 32.3032C24.5385 32.6533 24.3496 33.0124 24.1523 33.3668C24.1016 33.4596 24.0435 33.5495 23.9649 33.68Z" fill="white"/>
<path d="M23.9836 13.4185C24.1611 13.7285 24.3143 14.047 24.5132 14.3332C24.8406 14.801 24.9365 15.3016 24.9174 15.8618C24.8858 16.8501 24.9145 17.8402 24.9049 18.8296C24.9031 19.0301 24.9556 19.1801 25.1122 19.3116C25.3055 19.4738 25.4841 19.6522 25.6789 19.8328C25.6947 19.7397 25.6546 19.6522 25.6337 19.5669C25.4599 18.8602 25.393 18.1417 25.3878 17.4172C25.3819 16.6176 25.3845 15.8174 25.3878 15.0179C25.3915 14.8637 25.3579 14.7108 25.2897 14.5714C24.8732 13.7468 24.4567 12.9221 24.0402 12.0971C24.0273 12.0718 24.0104 12.0487 23.9806 12C23.8829 12.1849 23.7936 12.3491 23.7083 12.5151C23.3776 13.1621 23.0468 13.8106 22.7124 14.4558C22.6071 14.6571 22.5544 14.8802 22.5588 15.1057C22.565 15.7395 22.5588 16.3734 22.561 17.0073C22.5661 17.9166 22.4875 18.8175 22.2714 19.7045C22.2629 19.7382 22.26 19.7731 22.2515 19.8289C22.3879 19.7731 22.4514 19.6607 22.5499 19.5936C22.9649 19.3092 23.07 18.933 23.0527 18.4481C23.0159 17.4008 23.0464 16.3507 23.0439 15.3026C23.0426 15.1192 23.0925 14.9387 23.1883 14.7804C23.4055 14.4096 23.6069 14.0303 23.8175 13.6559C23.8623 13.5795 23.8946 13.4945 23.9836 13.4185Z" fill="white"/>
<path d="M20.0569 21.7852C19.8051 21.8357 19.6052 21.8787 19.4038 21.9157C18.4957 22.081 17.5758 22.1084 16.6593 22.0615C15.9294 22.0259 15.2796 22.1635 14.6593 22.5428C14.1587 22.8489 13.6178 23.0928 13.0926 23.3605C12.9823 23.4163 12.9592 23.4501 13.0856 23.5148C13.8971 23.9288 14.7077 24.3447 15.5174 24.7626C15.6295 24.8205 15.7497 24.8269 15.8735 24.8276C16.7555 24.834 17.6376 24.7999 18.517 24.861C19.0226 24.899 19.5251 24.969 20.0212 25.0704C19.7794 24.828 19.5552 24.5997 19.3263 24.3758C19.2858 24.3367 19.2211 24.3545 19.1664 24.3545C18.1624 24.3545 17.1587 24.3545 16.1547 24.3573C15.9894 24.3593 15.8271 24.3147 15.6876 24.229C15.2811 23.9872 14.8705 23.7522 14.4557 23.524C14.3186 23.4483 14.3175 23.4102 14.4557 23.3345C14.8666 23.1113 15.2719 22.8795 15.6769 22.6466C15.7975 22.5762 15.9363 22.5402 16.0771 22.5428C17.0992 22.5474 18.1216 22.5478 19.144 22.5492C19.198 22.5492 19.2572 22.5648 19.3013 22.5218C19.5423 22.2893 19.7816 22.0572 20.0569 21.7852Z" fill="white"/>
<path d="M35 23.4333C34.5799 23.2172 34.1985 23.0195 33.8159 22.8237C33.4116 22.616 33.0026 22.4127 32.5987 22.2022C32.4205 22.1095 32.2211 22.0617 32.0188 22.0632C31.1316 22.0572 30.2434 22.1045 29.3573 22.0227C28.8946 21.98 28.4385 21.9025 27.9644 21.8307C28.1026 21.9658 28.2559 22.0892 28.3753 22.2381C28.5822 22.4966 28.8369 22.5617 29.1699 22.5528C30.0692 22.5286 30.9707 22.5435 31.8696 22.5425C31.9492 22.5368 32.0289 22.5515 32.1007 22.5851C32.6024 22.856 33.1044 23.1262 33.6413 23.4156C33.4458 23.5336 33.2705 23.6431 33.0901 23.7469C32.7909 23.9204 32.4874 24.0871 32.1904 24.2638C32.0815 24.3294 31.9552 24.3628 31.8269 24.3598C30.8288 24.3569 29.831 24.3598 28.8329 24.3573C28.7755 24.3538 28.7181 24.3628 28.6648 24.3836C28.6115 24.4044 28.5637 24.4365 28.5249 24.4775C28.3452 24.6613 28.1541 24.833 27.9843 25.0438C28.2085 25.0082 28.4323 24.9666 28.6572 24.9339C29.551 24.8038 30.4536 24.7917 31.351 24.8351C31.9866 24.8721 32.6183 24.7164 33.1581 24.3897C33.7387 24.048 34.3528 23.7665 35 23.4333Z" fill="white"/>
<path d="M23.6925 28.7232C23.6925 29.6888 23.6962 30.6543 23.6888 31.6199C23.6888 31.7703 23.7322 31.8083 23.8833 31.8047C24.2475 31.7966 24.2475 31.8047 24.2475 31.4539C24.2475 29.5761 24.2452 27.698 24.2508 25.8202C24.2508 25.6577 24.2089 25.6069 24.038 25.6154C23.6929 25.6307 23.6914 25.6211 23.6914 25.9507C23.6914 26.875 23.6914 27.7993 23.6914 28.7236L23.6925 28.7232Z" fill="white"/>
<path d="M23.6915 18.1907C23.6915 19.1317 23.6952 20.0749 23.6882 21.0141C23.6882 21.1635 23.7312 21.2026 23.883 21.1965C24.2472 21.1823 24.2505 21.1898 24.2505 20.8449C24.2505 19.0098 24.2479 17.1747 24.253 15.3396C24.253 15.1938 24.2049 15.1618 24.0652 15.164C23.693 15.169 23.693 15.164 23.693 15.5269L23.6915 18.1907Z" fill="white"/>
<path d="M28.9872 23.1649C28.1052 23.1649 27.2232 23.1674 26.3411 23.1621C26.203 23.1621 26.15 23.188 26.1533 23.3356C26.1625 23.722 26.1533 23.7231 26.5602 23.7231C28.2441 23.7231 29.928 23.7202 31.6119 23.7281C31.7931 23.7281 31.8225 23.6673 31.8188 23.5148C31.8111 23.1681 31.8188 23.1671 31.4664 23.1667H28.9872V23.1649Z" fill="white"/>
<path d="M18.991 23.7224C19.8598 23.7224 20.7286 23.7188 21.597 23.7256C21.7407 23.7256 21.7848 23.69 21.783 23.5478C21.7786 23.1642 21.7856 23.1639 21.396 23.1639C19.7198 23.1639 18.044 23.1674 16.3678 23.1607C16.1958 23.1607 16.1657 23.2122 16.1697 23.3612C16.18 23.7192 16.1726 23.7199 16.5504 23.7199H18.991V23.7224Z" fill="white"/>
<path d="M18.8999 17.9394C18.872 17.9102 18.8481 17.8839 18.8231 17.8594C17.5707 16.6445 16.3176 15.4302 15.0639 14.2166C15.0172 14.1714 14.9775 14.0783 14.8901 14.1195C14.7975 14.1672 14.7209 14.2397 14.6696 14.3282C14.6442 14.3691 14.6949 14.3993 14.7232 14.4306C15.954 15.7072 17.1521 17.0122 18.3516 18.3162C18.3909 18.3592 18.4288 18.4229 18.4986 18.355C18.6203 18.2387 18.7401 18.1203 18.8595 18.0016C18.8752 17.9823 18.8887 17.9614 18.8999 17.9394Z" fill="white"/>
<path d="M33.3238 14.3285C33.2786 14.2333 33.197 14.1785 33.1209 14.122C33.0448 14.0655 33.0129 14.1476 32.9739 14.1839C32.0556 15.0719 31.1383 15.9605 30.222 16.8498C29.8714 17.1893 29.5219 17.5295 29.1662 17.8637C29.0761 17.9479 29.0622 18.0059 29.1629 18.0891C29.2838 18.1886 29.3863 18.3735 29.5113 18.3855C29.6443 18.3987 29.7318 18.1946 29.8376 18.083C30.97 16.8693 32.1003 15.6542 33.2286 14.4377C33.2606 14.4032 33.2903 14.3659 33.3238 14.3285Z" fill="white"/>
<path d="M14.9194 32.5118C14.9562 32.4802 14.9929 32.4503 15.0264 32.418C16.0047 31.4887 16.9832 30.5592 17.962 29.6294C18.2461 29.3599 18.5269 29.0869 18.8172 28.8242C18.9234 28.7282 18.9197 28.6728 18.8172 28.5753C18.4776 28.2522 18.4802 28.2458 18.1696 28.58C17.0487 29.7865 15.9135 30.9807 14.764 32.1624C14.7221 32.205 14.6368 32.2445 14.7011 32.3213C14.7654 32.3981 14.8202 32.467 14.9194 32.5118Z" fill="white"/>
<path d="M29.5286 28.2764C29.4551 28.34 29.3816 28.4019 29.3128 28.4673C29.0706 28.693 29.0695 28.6951 29.304 28.9198C30.517 30.0826 31.7298 31.2453 32.9423 32.408C33.0371 32.4994 33.0974 32.5261 33.2058 32.4208C33.3142 32.3156 33.3109 32.2552 33.2058 32.1485C31.9975 30.9146 30.8211 29.6525 29.6565 28.3802C29.6234 28.3421 29.5973 28.2927 29.5286 28.2764Z" fill="white"/>
<path d="M25.8326 22.1336C25.9061 22.1169 25.9428 22.0686 25.984 22.027C26.6303 21.3795 27.2765 20.7318 27.9226 20.0838C28.1431 19.862 28.3585 19.6348 28.5815 19.4154C28.6521 19.3461 28.6686 19.2942 28.5815 19.2299C28.5495 19.2024 28.5196 19.1725 28.4922 19.1406C28.2622 18.9042 28.257 18.8989 28.0284 19.1236C27.2034 19.9334 26.3842 20.7489 25.5581 21.5581C25.446 21.6679 25.4228 21.75 25.5555 21.8567C25.6349 21.9203 25.6977 22.0035 25.7686 22.0771C25.79 22.0977 25.8135 22.1166 25.8326 22.1336Z" fill="white"/>
<path d="M19.7713 18.9288C19.6816 18.9412 19.6592 18.9892 19.6268 19.0219C19.5258 19.1232 19.346 19.2114 19.3501 19.3326C19.3538 19.4353 19.5177 19.5356 19.6151 19.6326C20.407 20.4229 21.2023 21.2104 21.991 22.0039C22.0888 22.102 22.1398 22.1009 22.2343 22.0014C22.5195 21.6988 22.5246 21.702 22.2343 21.4105C21.4292 20.6064 20.6242 19.8028 19.8194 18.9999C19.8004 18.9781 19.7843 18.9543 19.7713 18.9288Z" fill="white"/>
<path d="M19.6592 27.7573C19.7076 27.7424 19.7491 27.7117 19.7768 27.6706C20.6449 26.8209 21.5074 25.9677 22.3777 25.1195C22.4736 25.026 22.4537 24.9773 22.3777 24.8902C22.1002 24.5845 22.1009 24.5795 21.8051 24.8642C20.9907 25.6463 20.1704 26.4267 19.384 27.2376C19.3024 27.3215 19.2958 27.3702 19.384 27.4509C19.481 27.5485 19.5729 27.6507 19.6592 27.7573Z" fill="white"/>
<path d="M25.8429 24.5948C25.7966 24.6495 25.7602 24.6961 25.7201 24.7395C25.4544 25.0239 25.4529 25.0263 25.7334 25.2994C26.5441 26.0889 27.3574 26.876 28.1648 27.6688C28.2651 27.7673 28.3291 27.7851 28.4198 27.667C28.4996 27.5632 28.6661 27.469 28.6631 27.3741C28.6602 27.2792 28.4952 27.1889 28.4011 27.0964C27.6026 26.3122 26.804 25.528 26.0053 24.7437C25.959 24.6982 25.9094 24.6559 25.8429 24.5948Z" fill="white"/>
<path d="M17.951 21.8684C17.9604 21.8667 17.97 21.8657 17.9796 21.8656C18.3769 21.9075 18.5805 21.7564 18.6779 21.3586C18.7984 20.8741 19.0796 20.4457 19.4022 20.0532C19.4831 19.9551 19.4757 19.8886 19.4022 19.7916C19.1049 19.4033 19.106 19.4005 18.8003 19.7788C18.3394 20.3508 18.0153 20.9907 17.8587 21.7038C17.8422 21.7788 17.7823 21.899 17.951 21.8684Z" fill="white"/>
<path d="M30.0897 21.8005C29.9625 21.2398 29.7389 20.7037 29.4282 20.2146C29.2778 19.9844 29.1097 19.7654 28.9255 19.5594C28.8571 19.4812 28.8215 19.4727 28.7487 19.5594C28.4455 19.9185 28.4426 19.9149 28.7035 20.2946C28.9993 20.7236 29.2258 21.1936 29.3753 21.6885C29.404 21.782 29.4422 21.8307 29.5462 21.8329C29.6932 21.8371 29.8402 21.8492 29.9872 21.8631C30.0651 21.8702 30.111 21.8581 30.0897 21.8005Z" fill="white"/>
<path d="M18.1635 25.0534C17.8132 25.0402 17.8125 25.0402 17.922 25.3712C18.1425 26.0395 18.4832 26.6407 18.9812 27.1562C19.0797 27.2575 19.1282 27.255 19.2123 27.1416C19.4545 26.8195 19.4593 26.8238 19.2311 26.5049C18.9617 26.1281 18.7338 25.7278 18.6023 25.288C18.5468 25.1024 18.4589 25.0338 18.2737 25.0527C18.237 25.0549 18.2002 25.0551 18.1635 25.0534Z" fill="white"/>
<path d="M29.7539 25.0434C29.4231 25.0608 29.4231 25.0612 29.3066 25.3719C29.1375 25.8305 28.8932 26.2597 28.583 26.6432C28.5033 26.7417 28.4882 26.8106 28.5716 26.9205C28.8417 27.276 28.8366 27.2788 29.139 26.9368C29.5845 26.4331 29.8759 25.8532 30.0604 25.2173C30.1034 25.0694 30.0699 25.0246 29.9182 25.0441C29.8634 25.0472 29.8086 25.047 29.7539 25.0434Z" fill="white"/>
<path d="M22.3574 29.1537C22.3543 29.1429 22.3521 29.1319 22.3508 29.1207C22.3777 28.6983 22.2303 28.4235 21.7584 28.3162C21.4155 28.238 21.1149 28.0318 20.8334 27.8185C20.7327 27.7428 20.6699 27.7506 20.593 27.8398C20.5352 27.9005 20.4738 27.9581 20.4093 28.0122C20.2094 28.1957 20.2064 28.1996 20.42 28.3556C20.9553 28.7534 21.5676 29.0435 22.2207 29.2089C22.2814 29.2231 22.3766 29.2814 22.3574 29.1537Z" fill="white"/>
<path d="M25.601 17.6095C25.6023 17.6184 25.6032 17.6275 25.6036 17.6365C25.5922 18.0254 25.6969 18.3024 26.1548 18.4154C26.5161 18.5043 26.8395 18.7219 27.1441 18.9419C27.2132 18.9917 27.2577 18.9913 27.311 18.9273C27.3515 18.8832 27.3945 18.8412 27.4396 18.8015C27.7266 18.5281 27.7281 18.5263 27.3904 18.2985C26.8902 17.9596 26.3376 17.6998 25.7531 17.5288C25.6624 17.5028 25.5738 17.4676 25.601 17.6095Z" fill="white"/>
<path d="M25.6529 29.2384L25.7264 29.2185C26.404 29.0339 27.0325 28.7524 27.5915 28.3329C27.7043 28.2483 27.7671 28.1804 27.6124 28.0709C27.4952 27.9881 27.411 27.827 27.2868 27.7964C27.1552 27.7637 27.0457 27.9276 26.9222 27.9987C26.5722 28.2054 26.1957 28.3671 25.8024 28.4797C25.7216 28.5018 25.6771 28.5306 25.6683 28.618C25.6503 28.7958 25.6209 28.9696 25.5948 29.1456C25.5885 29.1939 25.5738 29.2448 25.6529 29.2384Z" fill="white"/>
<path d="M22.3571 17.6063C22.3795 17.4915 22.3203 17.4925 22.2531 17.5135C22.1079 17.5583 21.9616 17.602 21.8187 17.6528C21.2814 17.8438 20.7897 18.115 20.324 18.435C20.2204 18.5061 20.2138 18.5569 20.3093 18.6369C20.4332 18.7435 20.5317 18.9064 20.6732 18.9526C20.8286 19.0034 20.9407 18.8129 21.0774 18.7361C21.4121 18.5399 21.7691 18.3819 22.1414 18.265C22.245 18.2345 22.2928 18.1847 22.302 18.0812C22.3145 17.9173 22.3391 17.7531 22.3571 17.6063Z" fill="white"/>
</svg>

<svg xmlns="http://www.w3.org/2000/svg" width="48" height="48" viewBox="0 0 48 48" fill="none"><path fill="#171E2F" stroke="#FFD644" stroke-width="2" d="M4.215 12.577 24 1.155l19.785 11.422v22.846L24 46.845 4.215 35.423V12.577Z"/><path fill="#848E9C" d="M25.88 23.384c-.005-1.003-.909-1.865-1.947-1.86-1.017.005-1.882.865-1.875 1.865.007 1.023.895 1.899 1.915 1.889 1.045-.011 1.912-.872 1.907-1.894Zm-1.91-.96.059.051c.292.285.582.573.876.857.066.063.029.101-.017.146-.275.268-.551.536-.824.807-.065.064-.107.068-.176 0a44.52 44.52 0 0 0-.831-.8c-.066-.062-.078-.107-.01-.174.281-.271.558-.546.838-.82a.979.979 0 0 1 .085-.068v.001Z"/><path fill="#fff" d="M23.965 33.68c-.309-.552-.598-1.066-.882-1.582-.044-.08-.037-.173-.037-.262 0-1.327-.002-2.653.002-3.982 0-.142-.034-.253-.145-.345-.231-.191-.461-.384-.635-.53.037.192.098.479.147.767.098.58.148 1.165.149 1.751v2.524c-.004.166.032.331.107.481l1.25 2.413c.013.026.031.05.053.085.106-.12.158-.26.226-.391.358-.687.712-1.377 1.07-2.062.083-.159.125-.335.122-.513-.005-.604.003-1.208-.005-1.813-.014-1.12.024-2.237.287-3.352-.244.249-.492.494-.732.747-.057.06-.033.147-.033.223 0 1.286-.004 2.571 0 3.857.002.213-.055.423-.166.607-.204.35-.393.71-.59 1.064-.051.093-.11.183-.188.313ZM23.984 13.418c.177.31.33.629.53.915.327.468.422.969.403 1.529-.031.988-.003 1.978-.012 2.968-.002.2.05.35.207.482.194.162.372.34.567.52.016-.092-.024-.18-.045-.265a9.237 9.237 0 0 1-.246-2.15c-.006-.8-.004-1.6 0-2.4a.963.963 0 0 0-.098-.446l-1.25-2.474c-.013-.025-.03-.048-.06-.097-.097.185-.186.35-.272.515-.33.647-.661 1.296-.996 1.94a1.344 1.344 0 0 0-.153.65c.006.634 0 1.268.002 1.902.005.91-.073 1.81-.29 2.697-.008.034-.011.07-.02.125.137-.056.2-.168.299-.235.415-.285.52-.661.503-1.146-.037-1.047-.007-2.097-.01-3.145a.995.995 0 0 1 .145-.523c.218-.37.419-.75.63-1.124.044-.077.077-.162.166-.238ZM20.057 21.785c-.252.05-.452.094-.653.13-.908.166-1.828.193-2.745.146-.73-.035-1.38.102-2 .482-.5.306-1.041.55-1.566.817-.11.056-.134.09-.007.155.811.414 1.622.83 2.431 1.248a.76.76 0 0 0 .357.065c.882.006 1.764-.028 2.643.033.506.038 1.008.108 1.504.21-.242-.243-.466-.471-.695-.695-.04-.04-.105-.021-.16-.021-1.004 0-2.007 0-3.011.002a.873.873 0 0 1-.467-.128 42.168 42.168 0 0 0-1.232-.705c-.137-.076-.138-.114 0-.19.41-.223.816-.454 1.22-.687.121-.07.26-.107.401-.104 1.022.004 2.045.005 3.067.006.054 0 .113.016.157-.027.241-.233.48-.465.756-.737ZM35 23.433l-1.184-.61c-.404-.207-.813-.41-1.217-.62a1.237 1.237 0 0 0-.58-.14c-.887-.006-1.776.042-2.662-.04-.462-.043-.918-.12-1.393-.192.139.135.292.258.411.407.207.259.462.324.795.315.9-.024 1.8-.01 2.7-.01.08-.006.159.009.23.042l1.541.83c-.195.119-.37.228-.55.332-.3.173-.604.34-.9.517a.674.674 0 0 1-.364.096c-.998-.003-1.996 0-2.994-.003a.396.396 0 0 0-.308.12c-.18.184-.37.356-.54.567.224-.036.447-.077.672-.11.894-.13 1.797-.142 2.694-.099a3.14 3.14 0 0 0 1.807-.445c.58-.342 1.195-.623 1.842-.957Z"/><path fill="#fff" d="M23.692 28.723c0 .966.004 1.931-.003 2.897 0 .15.043.188.194.185.364-.008.364 0 .364-.351 0-1.878-.002-3.756.004-5.634 0-.162-.042-.213-.213-.205-.345.016-.347.006-.347.336v2.773h.002ZM23.692 18.19c0 .942.003 1.885-.004 2.824 0 .15.043.189.195.183.364-.015.367-.007.367-.352 0-1.835-.002-3.67.003-5.505 0-.146-.048-.178-.188-.176-.372.005-.372 0-.372.363l-.002 2.664ZM28.987 23.165c-.882 0-1.764.002-2.646-.003-.138 0-.191.026-.188.174.01.386 0 .387.407.387 1.684 0 3.368-.003 5.052.005.181 0 .21-.06.207-.213-.008-.347 0-.348-.353-.348h-2.479v-.002ZM18.991 23.722c.869 0 1.738-.003 2.606.004.144 0 .188-.036.186-.178-.004-.384.003-.384-.387-.384-1.676 0-3.352.003-5.028-.003-.172 0-.202.051-.198.2.01.358.003.359.38.359h2.441v.002ZM18.9 17.94c-.028-.03-.052-.056-.077-.08-1.252-1.215-2.505-2.43-3.76-3.643-.046-.046-.086-.139-.173-.098a.54.54 0 0 0-.22.21c-.026.04.025.07.053.102 1.231 1.276 2.43 2.581 3.629 3.885.039.043.077.107.147.039.121-.116.241-.235.36-.353a.35.35 0 0 0 .04-.063ZM33.324 14.329c-.045-.096-.127-.15-.203-.207-.076-.056-.108.026-.147.062-.918.888-1.836 1.777-2.752 2.666-.35.34-.7.68-1.056 1.014-.09.084-.104.142-.003.225.12.1.223.285.348.297.133.013.22-.191.327-.303 1.132-1.214 2.262-2.429 3.39-3.645.033-.035.062-.072.096-.11ZM14.92 32.512c.036-.032.073-.062.106-.094l2.936-2.789c.284-.27.565-.542.855-.805.106-.096.103-.151 0-.249-.34-.323-.337-.33-.647.005-1.121 1.207-2.257 2.4-3.406 3.582-.042.043-.127.083-.063.16.064.076.12.145.218.19ZM29.529 28.276c-.074.064-.147.126-.216.191-.242.226-.243.228-.009.453l3.638 3.488c.095.091.155.118.264.013.108-.105.105-.166 0-.273a153.65 153.65 0 0 1-3.55-3.768c-.033-.038-.059-.087-.127-.104ZM25.833 22.134c.073-.017.11-.065.151-.107l1.939-1.943c.22-.222.436-.45.659-.669.07-.069.087-.12 0-.185a.837.837 0 0 1-.09-.09c-.23-.236-.235-.241-.464-.016-.825.81-1.644 1.625-2.47 2.434-.112.11-.135.192-.003.299.08.063.143.146.214.22l.064.057ZM19.771 18.929c-.09.012-.112.06-.144.093-.101.101-.281.19-.277.31.004.103.168.204.265.3.792.79 1.587 1.578 2.376 2.372.098.098.149.097.243-.003.285-.302.29-.299 0-.59L19.82 19a.35.35 0 0 1-.048-.071ZM19.66 27.757a.22.22 0 0 0 .117-.086c.868-.85 1.73-1.703 2.6-2.552.097-.093.077-.142 0-.229-.277-.306-.276-.31-.572-.026-.814.782-1.635 1.563-2.421 2.374-.082.084-.088.132 0 .213.097.098.189.2.275.306ZM25.843 24.595c-.046.055-.083.101-.123.145-.266.284-.267.286.013.56.811.789 1.624 1.576 2.432 2.369.1.098.164.116.255-.002.08-.104.246-.198.243-.293-.003-.095-.168-.185-.262-.278l-2.396-2.352c-.046-.046-.096-.088-.162-.15ZM17.951 21.868a.171.171 0 0 1 .029-.002c.397.041.6-.11.698-.507.12-.485.402-.913.724-1.306.081-.098.074-.164 0-.261-.297-.389-.296-.392-.602-.013a4.627 4.627 0 0 0-.941 1.925c-.017.075-.077.195.092.164ZM30.09 21.8a5.035 5.035 0 0 0-.662-1.585 5.48 5.48 0 0 0-.503-.656c-.068-.078-.104-.086-.176 0-.303.36-.306.356-.046.736.296.429.523.899.672 1.393.029.094.067.143.171.145.147.004.294.016.441.03.078.007.124-.005.103-.063ZM18.163 25.053c-.35-.013-.35-.013-.241.318.22.669.561 1.27 1.06 1.785.098.102.146.099.23-.014.242-.322.247-.318.02-.637-.27-.377-.498-.777-.63-1.217-.055-.186-.143-.254-.328-.235a1.039 1.039 0 0 1-.11 0ZM29.754 25.043c-.33.018-.33.018-.447.329-.17.459-.414.888-.724 1.271-.08.099-.095.168-.011.277.27.356.265.359.567.017a4.392 4.392 0 0 0 .921-1.72c.043-.148.01-.192-.142-.173-.055.003-.11.003-.164 0ZM22.357 29.154a.205.205 0 0 1-.006-.033c.027-.423-.12-.697-.593-.805-.342-.078-.643-.284-.925-.497-.1-.076-.163-.068-.24.02-.058.062-.12.12-.184.173-.2.184-.203.188.011.344a5.13 5.13 0 0 0 1.8.853c.061.014.157.072.137-.055ZM25.601 17.61a.271.271 0 0 1 .003.027c-.012.388.093.665.55.778.362.09.686.307.99.527.07.05.114.05.167-.015.04-.044.084-.086.129-.125.287-.274.288-.276-.05-.503a5.845 5.845 0 0 0-1.637-.77c-.09-.026-.18-.061-.152.08ZM25.653 29.238l.073-.02a5.45 5.45 0 0 0 1.866-.885c.112-.085.175-.153.02-.262-.117-.083-.201-.244-.325-.275-.132-.032-.241.132-.365.203a4.8 4.8 0 0 1-1.12.48c-.08.023-.125.052-.134.139-.018.178-.047.352-.073.528-.006.048-.021.099.058.092ZM22.357 17.606c.023-.115-.037-.114-.104-.093-.145.045-.291.089-.434.14a6.46 6.46 0 0 0-1.495.782c-.104.071-.11.122-.015.202.124.107.223.27.364.316.156.05.268-.14.404-.217a5.161 5.161 0 0 1 1.064-.471c.104-.03.152-.08.161-.184.012-.164.037-.328.055-.475Z"/></svg>
